src/ui/components/button/camera.svg

<svg width="40" height="36" viewBox="0 0 40 36" xmlns="http://www.w3.org/2000/svg"><title>Slice 1</title><desc>Created with Sketch.</desc><g fill="none" fill-rule="evenodd"><g fill="#F5F5F5"><circle cx="20" cy="20" r="6.4"/><path d="M14 0l-3.66 4H4C1.79 4 0 5.79 0 8v24c0 2.21 1.79 4 4 4h32c2.21 0 4-1.79 4-4V8c0-2.21-1.79-4-4-4h-6.34L26 0H14zm6 30c-5.52 0-10-4.48-10-10s4.48-10 10-10 10 4.48 10 10-4.48 10-10 10z"/></g></g></svg>

<?xml version="1.0" encoding="UTF-8" standalone="no"?>
<svg width="40px" height="36px" viewBox="0 0 40 36" version="1.1" xmlns="http://www.w3.org/2000/svg" xmlns:xlink="http://www.w3.org/1999/xlink" xmlns:sketch="http://www.bohemiancoding.com/sketch/ns">
    <!-- Generator: Sketch 3.2 (9961) - http://www.bohemiancoding.com/sketch -->
    <title>Slice 1</title>
    <desc>Created with Sketch.</desc>
    <defs></defs>
    <g id="Page-1" stroke="none" stroke-width="1" fill="none" fill-rule="evenodd" sketch:type="MSPage">
        <g id="camera" sketch:type="MSLayerGroup" fill="#F5F5F5">
            <circle id="Oval" sketch:type="MSShapeGroup" cx="20" cy="20" r="6.4"></circle>
            <path d="M14,0 L10.34,4 L4,4 C1.79,4 0,5.79 0,8 L0,32 C0,34.21 1.79,36 4,36 L36,36 C38.21,36 40,34.21 40,32 L40,8 C40,5.79 38.21,4 36,4 L29.66,4 L26,0 L14,0 L14,0 Z M20,30 C14.48,30 10,25.52 10,20 C10,14.48 14.48,10 20,10 C25.52,10 30,14.48 30,20 C30,25.52 25.52,30 20,30 L20,30 Z" id="Shape" sketch:type="MSShapeGroup"></path>
        </g>
    </g>
</svg>
